X:121
T:Tom Barrett's
R:polka
Z:id:hn-polka-121
M:2/4
L:1/8
K:Ador
A2 eA | eA eg/e/ | dB gB | dB gB |
A2 eA | eA eg/e/ | dB gB | BA A2 :|
|: ag eg | ag eg/e/ | dB gB | dB g2 |
ag eg | ag eg/e/ | dB gB | BA A2 :|

